X: 41579
T: Up
R: reel
M: 4/4
K: Amajor
|:D2AD BcAB-|BABc ecBA|^D2A^D BcAB-|BAef ecBA|
D2AD BcAB-|BABc e2BA|f3e cBAB-|1 BAFA EA^DA:|2 BAFA EAAB||
|:G3e edc2-|c2ec ecBA|F3f feA2-|A2BA BcBA|
G3e edc2-|c6 BA|FAAF ABFA|1 AFAB FAAF:|2 AFAB FAAB||
|:ceae cefe|fecB BA B/c/e|aece fece|fe c/B/A B3A|
ceae cefe|fecB BAce|f3f ecBA|1 BcFE A3B:|BcFE A4||


